src/static/user-gradient.svg

<svg
  width="32"
  height="32"
  viewBox="0 0 32 32"
  fill="none"
  xmlns="http://www.w3.org/2000/svg"
>
  <path
    d="M24.7449 26.0649L25.2371 26.6309L24.7449 26.0649ZM19.2498 11.9998C19.2498 13.7948 17.7948 15.2498 15.9998 15.2498V16.7498C18.6232 16.7498 20.7498 14.6232 20.7498 11.9998H19.2498ZM15.9998 15.2498C14.2049 15.2498 12.7498 13.7948 12.7498 11.9998H11.2498C11.2498 14.6232 13.3765 16.7498 15.9998 16.7498V15.2498ZM12.7498 11.9998C12.7498 10.2049 14.2049 8.74984 15.9998 8.74984V7.24984C13.3765 7.24984 11.2498 9.37648 11.2498 11.9998H12.7498ZM15.9998 8.74984C17.7948 8.74984 19.2498 10.2049 19.2498 11.9998H20.7498C20.7498 9.37648 18.6232 7.24984 15.9998 7.24984V8.74984ZM3.4165 15.9998C3.4165 9.05025 9.05025 3.4165 15.9998 3.4165V1.9165C8.22183 1.9165 1.9165 8.22183 1.9165 15.9998H3.4165ZM15.9998 3.4165C22.9494 3.4165 28.5832 9.05025 28.5832 15.9998H30.0832C30.0832 8.22183 23.7778 1.9165 15.9998 1.9165V3.4165ZM15.9998 20.7498C19.6817 20.7498 22.8239 23.0684 24.0424 26.3276L25.4475 25.8023C24.0169 21.976 20.3277 19.2498 15.9998 19.2498V20.7498ZM28.5832 15.9998C28.5832 19.7915 26.9071 23.1909 24.2528 25.499L25.2371 26.6309C28.205 24.05 30.0832 20.2438 30.0832 15.9998H28.5832ZM24.2528 25.499C22.0431 27.4206 19.1581 28.5832 15.9998 28.5832V30.0832C19.5335 30.0832 22.7648 28.7808 25.2371 26.6309L24.2528 25.499ZM7.95723 26.3276C9.1758 23.0684 12.318 20.7498 15.9998 20.7498V19.2498C11.672 19.2498 7.9828 21.976 6.55222 25.8023L7.95723 26.3276ZM15.9998 28.5832C12.8415 28.5832 9.95662 27.4206 7.74687 25.499L6.76258 26.6309C9.23489 28.7808 12.4662 30.0832 15.9998 30.0832V28.5832ZM7.74687 25.499C5.09261 23.1908 3.4165 19.7915 3.4165 15.9998H1.9165C1.9165 20.2438 3.79466 24.05 6.76258 26.6309L7.74687 25.499Z"
    fill="url(#paint0_linear_9620_81622)"
  />
  <defs>
    <linearGradient
      id="paint0_linear_9620_81622"
      x1="2.6665"
      y1="13.8519"
      x2="29.3332"
      y2="13.8519"
      gradientUnits="userSpaceOnUse"
    >
      <stop stop-color="#FF6848" />
      <stop
        offset="1"
        stop-color="#4940E0"
      />
    </linearGradient>
  </defs>
</svg>

<svg xmlns="http://www.w3.org/2000/svg" width="32" height="32" fill="none"><path fill="url(#a)" d="m24.745 26.065.492.566-.492-.566ZM19.25 12A3.25 3.25 0 0 1 16 15.25v1.5A4.75 4.75 0 0 0 20.75 12h-1.5ZM16 15.25A3.25 3.25 0 0 1 12.75 12h-1.5A4.75 4.75 0 0 0 16 16.75v-1.5ZM12.75 12A3.25 3.25 0 0 1 16 8.75v-1.5A4.75 4.75 0 0 0 11.25 12h1.5ZM16 8.75A3.25 3.25 0 0 1 19.25 12h1.5A4.75 4.75 0 0 0 16 7.25v1.5ZM3.416 16C3.416 9.05 9.05 3.416 16 3.416v-1.5C8.222 1.917 1.916 8.223 1.916 16h1.5ZM16 3.416c6.95 0 12.583 5.634 12.583 12.584h1.5c0-7.778-6.305-14.084-14.083-14.084v1.5Zm0 17.334a8.587 8.587 0 0 1 8.042 5.578l1.405-.526A10.087 10.087 0 0 0 16 19.25v1.5ZM28.583 16c0 3.791-1.676 7.19-4.33 9.499l.984 1.132A14.053 14.053 0 0 0 30.083 16h-1.5Zm-4.33 9.499A12.532 12.532 0 0 1 16 28.583v1.5c3.534 0 6.765-1.302 9.237-3.452l-.984-1.132Zm-16.296.829A8.587 8.587 0 0 1 16 20.75v-1.5a10.087 10.087 0 0 0-9.448 6.552l1.405.526ZM16 28.583A12.532 12.532 0 0 1 7.747 25.5l-.984 1.132A14.032 14.032 0 0 0 16 30.083v-1.5ZM7.747 25.5a12.553 12.553 0 0 1-4.33-9.5h-1.5c0 4.245 1.878 8.051 4.846 10.632l.984-1.132Z"/><defs><linearGradient id="a" x1="2.667" x2="29.333" y1="13.852" y2="13.852" gradientUnits="userSpaceOnUse"><stop stop-color="#FF6848"/><stop offset="1" stop-color="#4940E0"/></linearGradient></defs></svg>
